packages/icons/svg/Outline/droplet-off.svg

<svg fill="none" height="24" viewBox="0 0 24 24" width="24" xmlns="http://www.w3.org/2000/svg"><path clip-rule="evenodd" d="m11.9966 5.42876 3.884 3.959c1.372 1.39704 1.864 3.35204 1.491 5.15504l1.608 1.609c1.047-2.733.491-5.961-1.671-8.16404l-4.599-4.688c-.188-.191-.445-.3-.713-.3h-.001c-.269 0-.526.109-.714.301l-2.54999 2.603 1.41399 1.415zm.0058 13.57124h-.002c-1.465 0-2.844-.582-3.882-1.64-1.891-1.926-2.122-4.915-.693-7.106l-1.432-1.43201c-2.186 2.98201-1.959 7.23301.698 9.93901 1.417 1.444 3.302 2.239 5.309 2.239h.002c1.68-.001 3.27-.564 4.576-1.594l-1.431-1.43c-.917.659-2.002 1.023-3.145 1.024zm-7.29539-15.70694 15.99999 16.00004c.391.391.391 1.023 0 1.414-.195.195-.451.293-.707.293s-.512-.098-.707-.293l-15.99999-16.00004c-.391-.391-.391-1.023 0-1.414s1.023-.391 1.414 0z" fill="#6b7280" fill-rule="evenodd"/></svg>

<svg width="24" height="24" viewBox="0 0 24 24" fill="none" xmlns="http://www.w3.org/2000/svg">
<g id="Icon/Outline/droplet-off">
<path id="Mask" fill-rule="evenodd" clip-rule="evenodd" d="M11.9966 5.42869L15.8806 9.38769C17.2526 10.7847 17.7446 12.7397 17.3716 14.5427L18.9796 16.1517C20.0266 13.4187 19.4706 10.1907 17.3086 7.98769L12.7096 3.29969C12.5216 3.10869 12.2646 2.99969 11.9966 2.99969H11.9956C11.7266 2.99969 11.4696 3.10869 11.2816 3.30069L8.73161 5.90369L10.1456 7.31869L11.9966 5.42869ZM12.0024 19H12.0004C10.5354 19 9.15641 18.418 8.11841 17.36C6.22741 15.434 5.99641 12.445 7.42541 10.254L5.99341 8.82199C3.80741 11.804 4.03441 16.055 6.69141 18.761C8.10841 20.205 9.99341 21 12.0004 21H12.0024C13.6824 20.999 15.2724 20.436 16.5784 19.406L15.1474 17.976C14.2304 18.635 13.1454 18.999 12.0024 19ZM4.70701 3.29299L20.707 19.293C21.098 19.684 21.098 20.316 20.707 20.707C20.512 20.902 20.256 21 20 21C19.744 21 19.488 20.902 19.293 20.707L3.29301 4.70699C2.90201 4.31599 2.90201 3.68399 3.29301 3.29299C3.68401 2.90199 4.31601 2.90199 4.70701 3.29299Z" fill="#000000"/>
</g>
</svg>
